src/assets/SmileasyPaymentPlan/chair.svg

<svg height="58" viewBox="0 0 60 58" width="60" xmlns="http://www.w3.org/2000/svg" xmlns:xlink="http://www.w3.org/1999/xlink"><filter id="a"><feColorMatrix in="SourceGraphic" type="matrix" values="0 0 0 0 1.000000 0 0 0 0 1.000000 0 0 0 0 1.000000 0 0 0 1.000000 0"/></filter><g fill="none" fill-rule="evenodd" filter="url(#a)" transform="translate(-588 -37)"><g fill="#000" fill-rule="nonzero" transform="translate(588 37)"><path d="m57.05 35.475-16.743-4.175c-.8214296-.2049205-1.6732195-.2591314-2.514-.16l-15.466 1.82-15.882-14.019c-.68748824-.6067994-1.5730238-.9414536-2.49-.9410005h-.191c-1.5604879 0-2.9591717.9628173-3.51615582 2.420518-.55698411 1.4577006-.15674763 3.1079163 1.00615582 4.1484825l16.1 14.4c.4941274.4401866 1.0483423.8078674 1.646 1.092v3.849c-.0028495 1.4460548.7595752 2.7856961 2.0043036 3.5217219 1.2447283.7360258 2.7859686.7585748 4.0516964.0592781l6.944 1.335v3.1739995h-23c-2.76005315.0033066-4.99669388 2.2399473-5 5 0 .5522852.44771525 1 1 1h50c.5522847 0 1-.4477148 1-1v-4.2099995c.0132386-3.2732545-2.2542726-6.1141976-5.449-6.827l-17.329-3.938h-.012-.014l-4.171-.835.6-1.192 9.3-.979 16.212 4.3h.014c.3063272.0773052.621069.1162701.937.116 1.0376361.0031944 2.0337667-.4072485 2.7679587-1.1405022.734192-.7332536 1.1459086-1.7288585 1.1440476-2.7664978v-.266c.0020467-1.7896714-1.2142413-3.3510553-2.9500063-3.787zm-48.05 18.525h23v2h-25.829c.42535357-1.1977017 1.55801121-1.9984494 2.829-2zm44.933-2h-17.933v2h18v2h-20v-11.747l16.108 3.661c1.9940522.4456254 3.5117763 2.0669118 3.825 4.086zm-21.933-8.18v2.97l-5.273-1.015c.007-.012.015-.023.022-.036l1.349-2.7zm-7.041 1.025c-.4337111.8666047-1.4062507 1.3214019-2.3493816 1.098662-.943131-.22274-1.6094414-1.0645856-1.6096184-2.033662v-3.24c.5790762.0888831 1.167054.1043385 1.75.046l4.511-.475zm33.0410015-5.317c0 .5856763-.2696526 1.138744-.7307355 1.4998801-.461083.3611361-1.0625981.4902398-1.631266.3501199l-16.382-4.345c-.1173068-.0311007-.2392951-.0405887-.36-.028l-16.354 1.722c-1.4043668.1492093-2.8062058-.3035359-3.858-1.246l-16.1-14.4c-.54738892-.4877542-.73600901-1.2632486-.47378439-1.9479215s.92061896-1.1357671 1.65378439-1.1330905h.191c.42969695 0 .84460563.1569322 1.167.441012l16.216 14.309c.2127866.1889957.4964978.2774961.779.243l15.91-1.871c.6019331-.0720311 1.2119639-.0333958 1.8.114l16.74 4.178c.8440404.215857 1.4340972.9767956 1.4330015 1.848z"/><path d="m22 42h2v2h-2z"/><path d="m56.675 0h-21.675c-1.6568542 0-3 1.34314575-3 3v20h2v-20c0-.55228475.4477153-1 1-1h21.675c.6505296-.00155583 1.2058147.46971024 1.3100574 1.11183532.1042427.64212507-.2734437 1.26484991-.8910574 1.46916468l-9.043 3.019c-1.2231399.40786258-2.0488744 1.55165191-2.051 2.841v1.659c-.9299009.1925443-1.7854592.646691-2.466 1.309-.707896-1.1343819-2.0821741-1.6618437-3.3672583-1.2923878s-2.1693958 1.546252-2.1667417 2.8833878v3c0 1.6568542 1.3431458 3 3 3v-2c-.5522847 0-1-.4477153-1-1v-3c0-.5522847.4477153-1 1-1s1 .4477153 1 1v2c0 2.7614237 2.2385763 5 5 5s5-2.2385763 5-5v-2c0-.5522847.4477153-1 1-1s1 .4477153 1 1v3c0 .5522847-.4477153 1-1 1v2c1.6568542 0 3-1.3431458 3-3v-3c.0022059-1.33695-.8822572-2.5133331-2.1672238-2.882523-1.2849666-.3691898-2.6589776.1583002-3.3667762 1.292523-.6804179-.6626735-1.5359879-1.1171734-2.466-1.31v-1.66c.0003267-.4302393.2758064-.81204447.684-.948l9.043-3.014c1.5449936-.51723131 2.4876117-2.07777986 2.2264459-3.68598565-.2611659-1.60820578-1.6491729-2.7902706-3.2784459-2.79201435zm-6.675 17c0 1.6568542-1.3431458 3-3 3s-3-1.3431458-3-3 1.3431458-3 3-3 3 1.3431458 3 3z"/><path d="m46 16h2v2h-2z"/><path d="m21 27h14v3h2v-4c0-.5522847-.4477153-1-1-1h-6v-3c0-1.6568542-1.3431458-3-3-3s-3 1.3431458-3 3v1h2v-1c0-.5522847.4477153-1 1-1s1 .4477153 1 1v3h-8c-.5522847 0-1 .4477153-1 1v2h2z"/></g></g></svg>

<?xml version="1.0" encoding="UTF-8"?>
<svg width="60px" height="58px" viewBox="0 0 60 58" version="1.1" xmlns="http://www.w3.org/2000/svg" xmlns:xlink="http://www.w3.org/1999/xlink">
    <title>chair</title>
    <defs>
        <filter id="filter-1">
            <feColorMatrix in="SourceGraphic" type="matrix" values="0 0 0 0 1.000000 0 0 0 0 1.000000 0 0 0 0 1.000000 0 0 0 1.000000 0"></feColorMatrix>
        </filter>
    </defs>
    <g id="Design" stroke="none" stroke-width="1" fill="none" fill-rule="evenodd">
        <g id="Smileeasy-Payment-Plan" transform="translate(-1505.000000, -5012.000000)">
            <g id="How-it-works" transform="translate(3.000000, 3889.000000)">
                <g id="chair" transform="translate(914.000000, 1086.000000)" filter="url(#filter-1)">
                    <g transform="translate(588.000000, 37.000000)">
                        <path d="M57.05,35.475 L40.307,31.3 C39.4855704,31.0950795 38.6337805,31.0408686 37.793,31.14 L22.327,32.96 L6.445,18.941 C5.75751176,18.3342006 4.8719762,17.9995464 3.955,17.9999995 L3.764,17.9999995 C2.2035121,17.9999995 0.804828296,18.9628168 0.247844183,20.4205175 C-0.309139931,21.8782181 0.0910965533,23.5284338 1.254,24.569 L17.354,38.969 C17.8481274,39.4091866 18.4023423,39.7768674 19,40.061 L19,43.91 C18.9971505,45.3560548 19.7595752,46.6956961 21.0043036,47.4317219 C22.2490319,48.1677477 23.7902722,48.1902967 25.056,47.491 L32,48.826 L32,51.9999995 L9,51.9999995 C6.23994685,52.0033061 4.00330612,54.2399468 4,56.9999995 C4,57.5522847 4.44771525,57.9999995 5,57.9999995 L55,57.9999995 C55.5522847,57.9999995 56,57.5522847 56,56.9999995 L56,52.79 C56.0132386,49.5167455 53.7457274,46.6758024 50.551,45.963 L33.222,42.025 L33.21,42.025 L33.196,42.025 L29.025,41.19 L29.625,39.998 L38.925,39.019 L55.137,43.319 L55.151,43.319 C55.4573272,43.3963052 55.772069,43.4352701 56.088,43.435 C57.1256361,43.4381944 58.1217667,43.0277515 58.8559587,42.2944978 C59.5901507,41.5612442 60.0018673,40.5656393 60.0000063,39.528 L60.0000063,39.262 C60.002053,37.4723286 58.785765,35.9109447 57.05,35.475 Z M9,54 L32,54 L32,56 L6.171,56 C6.59635357,54.8022983 7.72901121,54.0015506 9,54 Z M53.933,52 L36,52 L36,54 L54,54 L54,56 L34,56 L34,44.253 L50.108,47.914 C52.1020522,48.3596254 53.6197763,49.9809118 53.933,52 L53.933,52 Z M32,43.82 L32,46.79 L26.727,45.775 C26.734,45.763 26.742,45.752 26.749,45.739 L28.098,43.039 L32,43.82 Z M24.959,44.845 C24.5252889,45.7116047 23.5527493,46.1664019 22.6096184,45.943662 C21.6664874,45.720922 21.000177,44.8790764 21,43.91 L21,40.67 C21.5790762,40.7588831 22.167054,40.7743385 22.75,40.716 L27.261,40.241 L24.959,44.845 Z M58.0000015,39.528 C58.0000015,40.1136763 57.7303489,40.666744 57.269266,41.0278801 C56.808183,41.3890162 56.2066679,41.5181199 55.638,41.378 L39.256,37.033 C39.1386932,37.0018993 39.0167049,36.9924113 38.896,37.005 L22.542,38.727 C21.1376332,38.8762093 19.7357942,38.4234641 18.684,37.481 L2.584,23.081 C2.03661108,22.5932458 1.84799099,21.8177514 2.11021561,21.1330785 C2.37244023,20.4484056 3.03083457,19.9973114 3.764,19.999988 L3.955,19.999988 C4.38469695,19.999988 4.79960563,20.1569202 5.122,20.441 L21.338,34.75 C21.5507866,34.9389957 21.8344978,35.0274961 22.117,34.993 L38.027,33.122 C38.6289331,33.0499689 39.2389639,33.0886042 39.827,33.236 L56.567,37.414 C57.4110404,37.629857 58.0010972,38.3907956 58.0000015,39.262 L58.0000015,39.528 Z" id="Shape" fill="#000000" fill-rule="nonzero"></path>
                        <rect id="Rectangle" fill="#000000" fill-rule="nonzero" x="22" y="42" width="2" height="2"></rect>
                        <path d="M56.675,0 L35,0 C33.3431458,0 32,1.34314575 32,3 L32,23 L34,23 L34,3 C34,2.44771525 34.4477153,2 35,2 L56.675,2 C57.3255296,1.99844417 57.8808147,2.46971024 57.9850574,3.11183532 C58.0893001,3.75396039 57.7116137,4.37668523 57.094,4.581 L48.051,7.6 C46.8278601,8.00786258 46.0021256,9.15165191 46,10.441 L46,12.1 C45.0700991,12.2925443 44.2145408,12.746691 43.534,13.409 C42.826104,12.2746181 41.4518259,11.7471563 40.1667417,12.1166122 C38.8816575,12.4860681 37.9973459,13.6628642 38,15 L38,18 C38,19.6568542 39.3431458,21 41,21 L41,19 C40.4477153,19 40,18.5522847 40,18 L40,15 C40,14.4477153 40.4477153,14 41,14 C41.5522847,14 42,14.4477153 42,15 L42,17 C42,19.7614237 44.2385763,22 47,22 C49.7614237,22 52,19.7614237 52,17 L52,15 C52,14.4477153 52.4477153,14 53,14 C53.5522847,14 54,14.4477153 54,15 L54,18 C54,18.5522847 53.5522847,19 53,19 L53,21 C54.6568542,21 56,19.6568542 56,18 L56,15 C56.0022059,13.66305 55.1177428,12.4866669 53.8327762,12.117477 C52.5478096,11.7482872 51.1737986,12.2757772 50.466,13.41 C49.7855821,12.7473265 48.9300121,12.2928266 48,12.1 L48,10.44 C48.0003267,10.0097607 48.2758064,9.62795553 48.684,9.492 L57.727,6.478 C59.2719936,5.96076869 60.2146117,4.40022014 59.9534459,2.79201435 C59.69228,1.18380857 58.304273,0.00174374731 56.675,0 Z M50,17 C50,18.6568542 48.6568542,20 47,20 C45.3431458,20 44,18.6568542 44,17 C44,15.3431458 45.3431458,14 47,14 C48.6568542,14 50,15.3431458 50,17 Z" id="Shape" fill="#000000" fill-rule="nonzero"></path>
                        <rect id="Rectangle" fill="#000000" fill-rule="nonzero" x="46" y="16" width="2" height="2"></rect>
                        <path d="M21,27 L35,27 L35,30 L37,30 L37,26 C37,25.4477153 36.5522847,25 36,25 L30,25 L30,22 C30,20.3431458 28.6568542,19 27,19 C25.3431458,19 24,20.3431458 24,22 L24,23 L26,23 L26,22 C26,21.4477153 26.4477153,21 27,21 C27.5522847,21 28,21.4477153 28,22 L28,25 L20,25 C19.4477153,25 19,25.4477153 19,26 L19,28 L21,28 L21,27 Z" id="Path" fill="#000000" fill-rule="nonzero"></path>
                    </g>
                </g>
            </g>
        </g>
    </g>
</svg>
